X:79
T:Union Quick Step
M:2/4
L:1/16
K:D
(3(ABc)|d2d2 d2cd|ecAc e2e2|dcBc Acec|d2df a2gf|d2d2 d2cd|
ecAc e2d2|dcBc Acec|d2f2d2::A2|g2g2 gfed|f2f2 fedc|e2e2 e2de|
f6 af|d2d2 d2cd|ecAc e2d2|dcBc Acec|d2f2d2:|
